X: 41813
T: Vidarvalsen
R: waltz
M: 3/4
K: Gmajor
D2 B2 d2|D2 B2 d2|cB Ac eg|gf ed cA|
D2 B2 d2|D2 B2 d2|cB AD FA|1 G6:|2 G3 ABc||
|:d2 ba g2|f4 f2|g4 a2|c4 cB|
A2 AG AB|c2 cA ce|f2 fe df|ge cd ef|
d2 ba g2|f4 f2|g4 a2|c4 cB|
A2 AG AB|c3 DFA|G2 AG AB|1 G3 ABc:|2 G6||

